;FLAVOR:Marlin
;TIME:3842
;Filament used: 6.51006m
;Layer height: 0.3
;Generated with Cura_SteamEngine 2.7.0
M190 S60
M104 S215
M109 S215
G21 ;metric values
G90 ;absolute positioning
M82 ;set extruder to absolute mode
M107 ;start with the fan off
G28 X0 Y0 ;move X/Y to min endstops
G28 Z0 ;move Z to min endstops
G29 ; bed leveling
G92 E0 ;zero the extruded length
G1 E5 F200 ; prime extruder
G92 E0 ;zero the extruded length again
M117 Printing...
;LAYER_COUNT:4
;LAYER:0
M107
G0 F3000 X25.984 Y38.276 Z0.2
G0 X26.484 Y37.974
;TYPE:SKIRT
G1 F1200 X26.675 Y37.881 E0.00883
G1 X27.149 Y37.695 E0.03
G1 X27.647 Y37.584 E0.05121
G1 X28.155 Y37.554 E0.07237
G1 X28.518 Y37.58 E0.0875
G1 X32.518 Y38.101 E0.25521
G1 X37.97 Y38.545 E0.48263
G1 X43.451 Y38.681 E0.71057
G1 X48.913 Y38.508 E0.93777
G1 X54.378 Y38.024 E1.16586
G1 X57.704 Y37.584 E1.30535
G1 X58.213 Y37.557 E1.32654
G1 X58.505 Y37.578 E1.33871
G1 X65.255 Y38.363 E1.62123
G1 X70.7 Y38.652 E1.84793
G1 X76.184 Y38.632 E2.07593
G1 X81.634 Y38.305 E2.30292
G1 X87.711 Y37.576 E2.55739
G1 X88.22 Y37.555 E2.57857
G1 X88.518 Y37.58 E2.591
G1 X92.518 Y38.101 E2.7587
G1 X97.97 Y38.545 E2.98612
G1 X103.451 Y38.681 E3.21407
G1 X108.913 Y38.508 E3.44126
G1 X114.378 Y38.024 E3.66936
G1 X117.704 Y37.584 E3.80884
G1 X118.213 Y37.557 E3.83004
G1 X118.505 Y37.578 E3.84221
G1 X125.255 Y38.363 E4.12473
G1 X130.7 Y38.652 E4.35143
G1 X136.184 Y38.632 E4.57943
G1 X141.634 Y38.305 E4.80642
G1 X147.583 Y37.591 E5.05552
G1 X148.092 Y37.57 E5.0767
G1 X148.617 Y37.633 E5.09869
G1 X151.784 Y38.277 E5.23305
G1 X157.199 Y39.214 E5.46153
G1 X162.661 Y39.843 E5.69011
G1 X168.109 Y40.161 E5.917
G1 X172.532 Y40.216 E6.1009
G1 X173.039 Y40.263 E6.12207
G1 X173.533 Y40.388 E6.14325
G1 X174.001 Y40.588 E6.16441
G1 X174.432 Y40.86 E6.1856
G1 X174.816 Y41.195 E6.20679
G1 X175.142 Y41.586 E6.22795
G1 X175.404 Y42.024 E6.24917
G1 X175.593 Y42.497 E6.27035
G1 X175.706 Y42.994 E6.29154
G1 X175.741 Y43.466 E6.31122
G1 X175.741 Y156.446 E11.00838
G1 X175.701 Y156.954 E11.02956
G1 X175.582 Y157.449 E11.05073
G1 X175.387 Y157.92 E11.07192
G1 X175.121 Y158.355 E11.09312
G1 X174.791 Y158.742 E11.11427
G1 X174.404 Y159.074 E11.13547
G1 X173.969 Y159.34 E11.15666
G1 X173.499 Y159.536 E11.17784
G1 X173.004 Y159.655 E11.199
G1 X172.573 Y159.695 E11.217
G1 X165.926 Y159.862 E11.49343
G1 X160.484 Y160.324 E11.7205
G1 X155.084 Y161.094 E11.94728
G1 X148.75 Y162.382 E12.216
G1 X148.244 Y162.444 E12.2372
G1 X147.682 Y162.42 E12.26058
G1 X143.682 Y161.899 E12.42829
G1 X138.23 Y161.455 E12.65571
G1 X132.749 Y161.319 E12.88365
G1 X127.287 Y161.492 E13.11085
G1 X121.822 Y161.976 E13.33895
G1 X118.496 Y162.416 E13.47843
G1 X117.987 Y162.443 E13.49962
G1 X117.695 Y162.422 E13.51179
G1 X110.945 Y161.637 E13.79432
G1 X105.5 Y161.348 E14.02101
G1 X100.016 Y161.368 E14.24901
G1 X94.558 Y161.695 E14.47634
G1 X88.454 Y162.421 E14.7319
G1 X87.695 Y162.422 E14.76346
G1 X80.945 Y161.637 E15.04598
G1 X75.5 Y161.348 E15.27268
G1 X70.016 Y161.368 E15.50068
G1 X64.566 Y161.695 E15.72767
G1 X58.489 Y162.424 E15.98213
G1 X57.98 Y162.445 E16.00331
G1 X57.682 Y162.42 E16.01574
G1 X53.682 Y161.899 E16.18345
G1 X48.23 Y161.455 E16.41087
G1 X42.749 Y161.319 E16.63881
G1 X37.287 Y161.492 E16.86601
G1 X31.827 Y161.976 E17.0939
G1 X28.567 Y162.415 E17.23066
G1 X28.058 Y162.443 E17.25185
G1 X27.551 Y162.392 E17.27304
G1 X26.899 Y162.201 E17.30128
G1 X26.67 Y162.107 E17.31157
G1 X26.215 Y161.877 E17.33277
G1 X25.802 Y161.579 E17.35394
G1 X25.44 Y161.22 E17.37514
G1 X25.139 Y160.809 E17.39632
G1 X24.906 Y160.355 E17.41754
G1 X24.744 Y159.859 E17.43923
G1 X24.701 Y159.68 E17.44688
G1 X24.643 Y159.378 E17.45967
G1 X24.292 Y156.905 E17.56351
G1 X24.26 Y156.448 E17.58256
G1 X24.261 Y43.464 E22.27989
G1 X24.299 Y42.969 E22.30053
G1 X24.695 Y40.401 E22.40856
G1 X24.812 Y39.905 E22.42974
G1 X25.005 Y39.433 E22.45094
G1 X25.269 Y38.998 E22.4721
G1 X25.598 Y38.609 E22.49328
G1 X25.984 Y38.276 E22.51447
G1 X26.484 Y37.974 E22.53876
G1 F3600 E21.53876
G0 F3000 X27.204 Y42.934
G0 X28.115 Y44.069
G0 X28.501 Y44.455
;TYPE:WALL-INNER
G1 F3600 E22.6427
G1 F1800 X51.5 Y44.455 E23.40765
G1 X51.5 Y155.455 E27.09952
G1 X28.501 Y155.455 E27.86447
G1 X28.501 Y44.455 E31.55635
G0 F3000 X28.101 Y44.055
G1 F1800 X51.9 Y44.055 E32.34791
G1 X51.9 Y155.855 E36.06639
G1 X28.101 Y155.855 E36.85795
G1 X28.101 Y44.055 E40.57643
G0 F3000 X28.135 Y43.655
;TYPE:WALL-OUTER
G1 F1800 X52.3 Y43.655 E41.38016
G1 X52.3 Y156.255 E45.12525
G1 X28.136 Y156.255 E45.92895
G1 X28.132 Y158.997 E46.02015
G1 X28.101 Y159.004 E46.02121
G1 X28.068 Y158.997 E46.02233
G1 X28.065 Y156.255 E46.0376
G1 X27.701 Y156.255 E46.04971
G1 X27.701 Y43.655 E49.7948
G1 X28.064 Y43.655 E49.80688
G1 X28.067 Y41.015 E49.89468
G1 X28.068 Y41.003 E49.89508
G1 X28.099 Y40.996 E49.89614
G1 X28.129 Y41.001 E49.89715
G1 X28.135 Y41.015
G1 X28.135 Y43.655 E49.91241
G0 F3000 X28.335 Y43.655
G0 X28.335 Y44.155
G0 X51.319 Y45.097
;TYPE:SKIN
G1 F1800 X50.857 Y44.634 E49.93416
G0 F3000 X50.291 Y44.634
G1 F1800 X51.319 Y45.662 E49.98252
G1 X51.389 Y45.732
G0 F3000 X51.319 Y46.228
G1 F1800 X49.725 Y44.634 E50.05749
G1 X49.655 Y44.564
G0 F3000 X49.16 Y44.634
G1 F1800 X51.319 Y46.794 E50.15907
G1 X51.389 Y46.864
G0 F3000 X51.319 Y47.359
G1 F1800 X48.594 Y44.634 E50.28725
G1 X48.524 Y44.564
G0 F3000 X48.028 Y44.634
G1 F1800 X51.319 Y47.925 E50.44204
G1 X51.389 Y47.995
G0 F3000 X51.319 Y48.491
G1 F1800 X47.463 Y44.634 E50.62344
G1 X47.393 Y44.564
G0 F3000 X46.897 Y44.634
G1 F1800 X51.319 Y49.056 E50.83144
G1 X51.389 Y49.126
G0 F3000 X51.319 Y49.622
G1 F1800 X46.331 Y44.634 E51.06606
G1 X46.261 Y44.564
G0 F3000 X45.766 Y44.634
G1 F1800 X51.319 Y50.188 E51.32728
G1 X51.389 Y50.258
G0 F3000 X51.319 Y50.754
G1 F1800 X45.2 Y44.634 E51.61512
G1 X45.13 Y44.564
G0 F3000 X44.634 Y44.634
G1 F1800 X51.319 Y51.319 E51.92956
G1 X51.389 Y51.389
G0 F3000 X51.319 Y51.885
G1 F1800 X44.069 Y44.634 E52.2706
G1 X43.999 Y44.564
G0 F3000 X43.503 Y44.634
G1 F1800 X51.319 Y52.451 E52.63827
G1 X51.389 Y52.521
G0 F3000 X51.319 Y53.016
G1 F1800 X42.937 Y44.634 E53.03253
G1 X42.867 Y44.564
G0 F3000 X42.371 Y44.634
G1 F1800 X51.319 Y53.582 E53.45342
G1 X51.389 Y53.652
G0 F3000 X51.319 Y54.148
G1 F1800 X41.806 Y44.634 E53.9009
G1 X41.736 Y44.564
G0 F3000 X41.24 Y44.634
G1 F1800 X51.319 Y54.713 E54.37499
G1 X51.389 Y54.783
G0 F3000 X51.319 Y55.279
G1 F1800 X40.674 Y44.634 E54.8757
G1 X40.604 Y44.564
G0 F3000 X40.109 Y44.634
G1 F1800 X51.319 Y55.845 E55.40301
G1 X51.389 Y55.915
G0 F3000 X51.319 Y56.41
G1 F1800 X39.543 Y44.634 E55.95691
G1 X39.473 Y44.564
G0 F3000 X38.977 Y44.634
G1 F1800 X51.319 Y56.976 E56.53744
G1 X51.389 Y57.046
G0 F3000 X51.319 Y57.542
G1 F1800 X38.412 Y44.634 E57.14457
G1 X38.342 Y44.564
G0 F3000 X37.846 Y44.634
G1 F1800 X51.319 Y58.107 E57.7783
G1 X51.389 Y58.177
G0 F3000 X51.319 Y58.673
G1 F1800 X37.28 Y44.634 E58.43865
G1 X37.21 Y44.564
G0 F3000 X36.715 Y44.634
G1 F1800 X51.319 Y59.239 E59.1256
G1 X51.389 Y59.309
G0 F3000 X51.319 Y59.804
G1 F1800 X36.149 Y44.634 E59.83915
G1 X36.079 Y44.564
G0 F3000 X35.583 Y44.634
G1 F1800 X51.319 Y60.37 E60.57933
G1 X51.389 Y60.44
G0 F3000 X51.319 Y60.936
G1 F1800 X35.018 Y44.634 E61.3461
G1 X34.948 Y44.564
G0 F3000 X34.452 Y44.634
G1 F1800 X51.319 Y61.502 E62.13949
G1 X51.389 Y61.572
G0 F3000 X51.319 Y62.067
G1 F1800 X33.886 Y44.634 E62.95949
G1 X33.816 Y44.564
G0 F3000 X33.32 Y44.634
G1 F1800 X51.319 Y62.633 E63.80611
G1 X51.389 Y62.703
G0 F3000 X51.319 Y63.199
G1 F1800 X32.755 Y44.634 E64.67932
G1 X32.685 Y44.564
G0 F3000 X32.189 Y44.634
G1 F1800 X51.319 Y63.764 E65.57914
G1 X51.389 Y63.834
G0 F3000 X51.319 Y64.33
G1 F1800 X31.623 Y44.634 E66.50558
G1 X31.553 Y44.564
G0 F3000 X31.058 Y44.634
G1 F1800 X51.319 Y64.896 E67.45862
G1 X51.389 Y64.966
G0 F3000 X51.319 Y65.461
G1 F1800 X30.492 Y44.634 E68.43826
G1 X30.422 Y44.564
G0 F3000 X29.926 Y44.634
G1 F1800 X51.319 Y66.027 E69.44452
G1 X51.389 Y66.097
G0 F3000 X51.319 Y66.593
G1 F1800 X29.361 Y44.634 E70.47738
G1 X29.291 Y44.564
G0 F3000 X28.795 Y44.634
G1 F1800 X51.319 Y67.158 E71.53684
G1 X51.389 Y67.228
G0 F3000 X51.319 Y67.724
G1 F1800 X28.68 Y45.085 E72.60171
G1 X28.61 Y45.015
G0 F3000 X28.68 Y45.651
G1 F1800 X51.319 Y68.29 E73.66658
G1 X51.389 Y68.36
G0 F3000 X51.319 Y68.855
G1 F1800 X28.68 Y46.217 E74.73142
G1 X28.61 Y46.147
G0 F3000 X28.68 Y46.782
G1 F1800 X51.319 Y69.421 E75.79629
G1 X51.389 Y69.491
G0 F3000 X51.319 Y69.987
G1 F1800 X28.68 Y47.348 E76.86116
G1 X28.61 Y47.278
G0 F3000 X28.68 Y47.914
G1 F1800 X51.319 Y70.552 E77.92601
G1 X51.389 Y70.622
G0 F3000 X51.319 Y71.118
G1 F1800 X28.68 Y48.479 E78.99088
G1 X28.61 Y48.409
G0 F3000 X28.68 Y49.045
G1 F1800 X51.319 Y71.684 E80.05575
G1 X51.389 Y71.754
G0 F3000 X51.319 Y72.25
G1 F1800 X28.68 Y49.611 E81.12061
G1 X28.61 Y49.541
G0 F3000 X28.68 Y50.177
G1 F1800 X51.319 Y72.815 E82.18546
G1 X51.389 Y72.885
G0 F3000 X51.319 Y73.381
G1 F1800 X28.68 Y50.742 E83.25033
G1 X28.61 Y50.672
G0 F3000 X28.68 Y51.308
G1 F1800 X51.319 Y73.947 E84.3152
G1 X51.389 Y74.017
G0 F3000 X51.319 Y74.512
G1 F1800 X28.68 Y51.874 E85.38004
G1 X28.61 Y51.804
G0 F3000 X28.68 Y52.439
G1 F1800 X51.319 Y75.078 E86.44491
G1 X51.389 Y75.148
G0 F3000 X51.319 Y75.644
G1 F1800 X28.68 Y53.005 E87.50978
G1 X28.61 Y52.935
G0 F3000 X28.68 Y53.571
G1 F1800 X51.319 Y76.209 E88.57463
G1 X51.389 Y76.279
G0 F3000 X51.319 Y76.775
G1 F1800 X28.68 Y54.136 E89.6395
G1 X28.61 Y54.066
G0 F3000 X28.68 Y54.702
G1 F1800 X51.319 Y77.341 E90.70437
G1 X51.389 Y77.411
G0 F3000 X51.319 Y77.906
G1 F1800 X28.68 Y55.268 E91.76921
G1 X28.61 Y55.198
G0 F3000 X28.68 Y55.833
G1 F1800 X51.319 Y78.472 E92.83408
G1 X51.389 Y78.542
G0 F3000 X51.319 Y79.038
G1 F1800 X28.68 Y56.399 E93.89895
G1 X28.61 Y56.329
G0 F3000 X28.68 Y56.965
G1 F1800 X51.319 Y79.603 E94.9638
G1 X51.389 Y79.673
G0 F3000 X51.319 Y80.169
G1 F1800 X28.68 Y57.53 E96.02866
G1 X28.61 Y57.46
G0 F3000 X28.68 Y58.096
G1 F1800 X51.319 Y80.735 E97.09353
G1 X51.389 Y80.805
G0 F3000 X51.319 Y81.301
G1 F1800 X28.68 Y58.662 E98.1584
G1 X28.61 Y58.592
G0 F3000 X28.68 Y59.227
G1 F1800 X51.319 Y81.866 E99.22327
G1 X51.389 Y81.936
G0 F3000 X51.319 Y82.432
G1 F1800 X28.68 Y59.793 E100.28814
G1 X28.61 Y59.723
G0 F3000 X28.68 Y60.359
G1 F1800 X51.319 Y82.998 E101.35301
G1 X51.389 Y83.068
G0 F3000 X51.319 Y83.563
G1 F1800 X28.68 Y60.925 E102.41786
G1 X28.61 Y60.855
G0 F3000 X28.68 Y61.49
G1 F1800 X51.319 Y84.129 E103.48273
G1 X51.389 Y84.199
G0 F3000 X51.319 Y84.695
G1 F1800 X28.68 Y62.056 E104.54759
G1 X28.61 Y61.986
G0 F3000 X28.68 Y62.622
G1 F1800 X51.319 Y85.26 E105.61244
G1 X51.389 Y85.33
G0 F3000 X51.319 Y85.826
G1 F1800 X28.68 Y63.187 E106.67731
G1 X28.61 Y63.117
G0 F3000 X28.68 Y63.753
G1 F1800 X51.319 Y86.392 E107.74218
G1 X51.389 Y86.462
G0 F3000 X51.319 Y86.957
G1 F1800 X28.68 Y64.319 E108.80702
G1 X28.61 Y64.249
G0 F3000 X28.68 Y64.884
G1 F1800 X51.319 Y87.523 E109.87189
G1 X51.389 Y87.593
G0 F3000 X51.319 Y88.089
G1 F1800 X28.68 Y65.45 E110.93676
G1 X28.61 Y65.38
G0 F3000 X28.68 Y66.016
G1 F1800 X51.319 Y88.654 E112.00161
G1 X51.389 Y88.724
G0 F3000 X51.319 Y89.22
G1 F1800 X28.68 Y66.581 E113.06648
G1 X28.61 Y66.511
G0 F3000 X28.68 Y67.147
G1 F1800 X51.319 Y89.786 E114.13135
G1 X51.389 Y89.856
G0 F3000 X51.319 Y90.351
G1 F1800 X28.68 Y67.713 E115.19619
G1 X28.61 Y67.643
G0 F3000 X28.68 Y68.278
G1 F1800 X51.319 Y90.917 E116.26106
G1 X51.389 Y90.987
G0 F3000 X51.319 Y91.483
G1 F1800 X28.68 Y68.844 E117.32593
G1 X28.61 Y68.774
G0 F3000 X28.68 Y69.41
G1 F1800 X51.319 Y92.049 E118.3908
G1 X51.389 Y92.119
G0 F3000 X51.319 Y92.614
G1 F1800 X28.68 Y69.975 E119.45567
G1 X28.61 Y69.905
G0 F3000 X28.68 Y70.541
G1 F1800 X51.319 Y93.18 E120.52054
G1 X51.389 Y93.25
G0 F3000 X51.319 Y93.746
G1 F1800 X28.68 Y71.107 E121.58541
G1 X28.61 Y71.037
G0 F3000 X28.68 Y71.673
G1 F1800 X51.319 Y94.311 E122.65025
G1 X51.389 Y94.381
G0 F3000 X51.319 Y94.877
G1 F1800 X28.68 Y72.238 E123.71512
G1 X28.61 Y72.168
G0 F3000 X28.68 Y72.804
G1 F1800 X51.319 Y95.443 E124.77999
G1 X51.389 Y95.513
G0 F3000 X51.319 Y96.008
G1 F1800 X28.68 Y73.37 E125.84484
G1 X28.61 Y73.3
G0 F3000 X28.68 Y73.935
G1 F1800 X51.319 Y96.574 E126.90971
G1 X51.389 Y96.644
G0 F3000 X51.319 Y97.14
G1 F1800 X28.68 Y74.501 E127.97457
G1 X28.61 Y74.431
G0 F3000 X28.68 Y75.067
G1 F1800 X51.319 Y97.705 E129.03942
G1 X51.389 Y97.775
G0 F3000 X51.319 Y98.271
G1 F1800 X28.68 Y75.632 E130.10429
G1 X28.61 Y75.562
G0 F3000 X28.68 Y76.198
G1 F1800 X51.319 Y98.837 E131.16916
G1 X51.389 Y98.907
G0 F3000 X51.319 Y99.402
G1 F1800 X28.68 Y76.764 E132.234
G1 X28.61 Y76.694
G0 F3000 X28.68 Y77.329
G1 F1800 X51.319 Y99.968 E133.29887
G1 X51.389 Y100.038
G0 F3000 X51.319 Y100.534
G1 F1800 X28.68 Y77.895 E134.36374
G1 X28.61 Y77.825
G0 F3000 X28.68 Y78.461
G1 F1800 X51.319 Y101.1 E135.42861
G1 X51.389 Y101.17
G0 F3000 X51.319 Y101.665
G1 F1800 X28.68 Y79.026 E136.49348
G1 X28.61 Y78.956
G0 F3000 X28.68 Y79.592
G1 F1800 X51.319 Y102.231 E137.55835
G1 X51.389 Y102.301
G0 F3000 X51.319 Y102.797
G1 F1800 X28.68 Y80.158 E138.62322
G1 X28.61 Y80.088
G0 F3000 X28.68 Y80.724
G1 F1800 X51.319 Y103.362 E139.68806
G1 X51.389 Y103.432
G0 F3000 X51.319 Y103.928
G1 F1800 X28.68 Y81.289 E140.75293
G1 X28.61 Y81.219
G0 F3000 X28.68 Y81.855
G1 F1800 X51.319 Y104.494 E141.8178
G1 X51.389 Y104.564
G0 F3000 X51.319 Y105.059
G1 F1800 X28.68 Y82.421 E142.88265
G1 X28.61 Y82.351
G0 F3000 X28.68 Y82.986
G1 F1800 X51.319 Y105.625 E143.94752
G1 X51.389 Y105.695
G0 F3000 X51.319 Y106.191
G1 F1800 X28.68 Y83.552 E145.01239
G1 X28.61 Y83.482
G0 F3000 X28.68 Y84.118
G1 F1800 X51.319 Y106.756 E146.07723
G1 X51.389 Y106.826
G0 F3000 X51.319 Y107.322
G1 F1800 X28.68 Y84.683 E147.1421
G1 X28.61 Y84.613
G0 F3000 X28.68 Y85.249
G1 F1800 X51.319 Y107.888 E148.20697
G1 X51.389 Y107.958
G0 F3000 X51.319 Y108.453
G1 F1800 X28.68 Y85.815 E149.27182
G1 X28.61 Y85.745
G0 F3000 X28.68 Y86.38
G1 F1800 X51.319 Y109.019 E150.33669
G1 X51.389 Y109.089
G0 F3000 X51.319 Y109.585
G1 F1800 X28.68 Y86.946 E151.40155
G1 X28.61 Y86.876
G0 F3000 X28.68 Y87.512
G1 F1800 X51.319 Y110.15 E152.4664
G1 X51.389 Y110.22
G0 F3000 X51.319 Y110.716
G1 F1800 X28.68 Y88.077 E153.53127
G1 X28.61 Y88.007
G0 F3000 X28.68 Y88.643
G1 F1800 X51.319 Y111.282 E154.59614
G1 X51.389 Y111.352
G0 F3000 X51.319 Y111.848
G1 F1800 X28.68 Y89.209 E155.66101
G1 X28.61 Y89.139
G0 F3000 X28.68 Y89.774
G1 F1800 X51.319 Y112.413 E156.72588
G1 X51.389 Y112.483
G0 F3000 X51.319 Y112.979
G1 F1800 X28.68 Y90.34 E157.79075
G1 X28.61 Y90.27
G0 F3000 X28.68 Y90.906
G1 F1800 X51.319 Y113.545 E158.85562
G1 X51.389 Y113.615
G0 F3000 X51.319 Y114.11
G1 F1800 X28.68 Y91.472 E159.92046
G1 X28.61 Y91.402
G0 F3000 X28.68 Y92.037
G1 F1800 X51.319 Y114.676 E160.98533
G1 X51.389 Y114.746
G0 F3000 X51.319 Y115.242
G1 F1800 X28.68 Y92.603 E162.0502
G1 X28.61 Y92.533
G0 F3000 X28.68 Y93.169
G1 F1800 X51.319 Y115.807 E163.11504
G1 X51.389 Y115.877
G0 F3000 X51.319 Y116.373
G1 F1800 X28.68 Y93.734 E164.17991
G1 X28.61 Y93.664
G0 F3000 X28.68 Y94.3
G1 F1800 X51.319 Y116.939 E165.24478
G1 X51.389 Y117.009
G0 F3000 X51.319 Y117.504
G1 F1800 X28.68 Y94.866 E166.30963
G1 X28.61 Y94.796
G0 F3000 X28.68 Y95.431
G1 F1800 X51.319 Y118.07 E167.3745
G1 X51.389 Y118.14
G0 F3000 X51.319 Y118.636
G1 F1800 X28.68 Y95.997 E168.43937
G1 X28.61 Y95.927
G0 F3000 X28.68 Y96.563
G1 F1800 X51.319 Y119.201 E169.50421
G1 X51.389 Y119.271
G0 F3000 X51.319 Y119.767
G1 F1800 X28.68 Y97.128 E170.56908
G1 X28.61 Y97.058
G0 F3000 X28.68 Y97.694
G1 F1800 X51.319 Y120.333 E171.63395
G1 X51.389 Y120.403
G0 F3000 X51.319 Y120.898
G1 F1800 X28.68 Y98.26 E172.6988
G1 X28.61 Y98.19
G0 F3000 X28.68 Y98.825
G1 F1800 X51.319 Y121.464 E173.76367
G1 X51.389 Y121.534
G0 F3000 X51.319 Y122.03
G1 F1800 X28.68 Y99.391 E174.82853
G1 X28.61 Y99.321
G0 F3000 X28.68 Y99.957
G1 F1800 X51.319 Y122.596 E175.8934
G1 X51.389 Y122.666
G0 F3000 X51.319 Y123.161
G1 F1800 X28.68 Y100.523 E176.95825
G1 X28.61 Y100.453
G0 F3000 X28.68 Y101.088
G1 F1800 X51.319 Y123.727 E178.02312
G1 X51.389 Y123.797
G0 F3000 X51.319 Y124.293
G1 F1800 X28.68 Y101.654 E179.08799
G1 X28.61 Y101.584
G0 F3000 X28.68 Y102.22
G1 F1800 X51.319 Y124.858 E180.15283
